public/static/img/bottom/licai2.svg

<svg xmlns="http://www.w3.org/2000/svg" width="28" height="28" viewBox="0 0 28 28" fill="none">
  <g clip-path="url(#clip0_54_1972)">
    <g filter="url(#filter0_d_54_1972)">
      <rect x="2" y="2" width="23.33" height="23.33" rx="6" fill="#00A609"/>
    </g>
    <path d="M9.2 15.5999H15.8C16.1313 15.5999 16.4 15.3314 16.4 14.9999C16.4 14.6686 16.1313 14.3999 15.8 14.3999H11C9.34315 14.3999 8 13.0569 8 11.3999C8 9.74313 9.34315 8.4 11 8.4H12.2V6H14.6V8.4H17.6V10.7999H11C10.6686 10.7999 10.4 11.0686 10.4 11.3999C10.4 11.7314 10.6686 11.9999 11 11.9999H15.8C17.4569 11.9999 18.8 13.3431 18.8 14.9999C18.8 16.6569 17.4569 17.9999 15.8 17.9999H14.6V20.3999H12.2V17.9999H9.2V15.5999Z" fill="white"/>
  </g>
  <defs>
    <filter id="filter0_d_54_1972" x="-2" y="2" width="31.33" height="31.3301" filterUnits="userSpaceOnUse" color-interpolation-filters="sRGB">
      <feFlood flood-opacity="0" result="BackgroundImageFix"/>
      <feColorMatrix in="SourceAlpha" type="matrix" values="0 0 0 0 0 0 0 0 0 0 0 0 0 0 0 0 0 0 127 0" result="hardAlpha"/>
      <feOffset dy="4"/>
      <feGaussianBlur stdDeviation="2"/>
      <feComposite in2="hardAlpha" operator="out"/>
      <feColorMatrix type="matrix" values="0 0 0 0 0 0 0 0 0 0 0 0 0 0 0 0 0 0 0.25 0"/>
      <feBlend mode="normal" in2="BackgroundImageFix" result="effect1_dropShadow_54_1972"/>
      <feBlend mode="normal" in="SourceGraphic" in2="effect1_dropShadow_54_1972" result="shape"/>
    </filter>
    <clipPath id="clip0_54_1972">
      <rect width="28" height="28" fill="white"/>
    </clipPath>
  </defs>
</svg>

<svg xmlns="http://www.w3.org/2000/svg" width="28" height="28" fill="none"><g clip-path="url(#a)"><g filter="url(#b)"><rect x="2" y="2" width="23.33" height="23.33" rx="6" fill="#00A609"/></g><path d="M9.2 15.6h6.6a.6.6 0 1 0 0-1.2H11a3 3 0 1 1 0-6h1.2V6h2.4v2.4h3v2.4H11a.6.6 0 0 0 0 1.2h4.8a3 3 0 0 1 0 6h-1.2v2.4h-2.4V18h-3v-2.4Z" fill="#fff"/></g><defs><clipPath id="a"><path fill="#fff" d="M0 0h28v28H0z"/></clipPath><filter id="b" x="-2" y="2" width="31.33" height="31.33" filterUnits="userSpaceOnUse" color-interpolation-filters="sRGB"><feFlood flood-opacity="0" result="BackgroundImageFix"/><feColorMatrix in="SourceAlpha" values="0 0 0 0 0 0 0 0 0 0 0 0 0 0 0 0 0 0 127 0" result="hardAlpha"/><feOffset dy="4"/><feGaussianBlur stdDeviation="2"/><feComposite in2="hardAlpha" operator="out"/><feColorMatrix values="0 0 0 0 0 0 0 0 0 0 0 0 0 0 0 0 0 0 0.25 0"/><feBlend in2="BackgroundImageFix" result="effect1_dropShadow_54_1972"/><feBlend in="SourceGraphic" in2="effect1_dropShadow_54_1972" result="shape"/></filter></defs></svg>
